!!!ONB: MCCC : IRS0102_07 : Extracted Monophonic Melody
!!!COM: Schumann, Robert
!!!OPR: 8 Novelletten
!!!OMV: 7
!!!SCT: Op.21
!!!ODT: 1838///
**kern
*staff1
*clefG2
*k[f#c#g#]
*A:
*M3/4
4B
=2
4e
4g#
4cc#
=3
4b
4f#
4g#
=4
4a
4cc#
4ee
=5
2aa
4gg#
=6
2.gg#
=7
2ff#
4ee
=8
2dd#
4cc#[
=9
4cc#]
4b
4a
=10
4g#
4b
4ff#
=11
4ee
4f#
4g#
=12
4a
4e
4f#
=13
4g
4d
4e
=14
4e#
4a
4cc
=15
4ee#
4aa
4ccc
=16
2.bb[
=17
4bb]
4r
4B
=18
4e
4g#
4cc#
=19
4b
4f#
4g#
=20
4a
4cc#
4ee
=21
2aa
4gg#
=22
2.gg#
=23
2ff#
4ee
=24
2dd#
4cc#[
=25
4cc#]
4b
4a
=26
4g#
4b
4ff#
=27
4ee
4f#
4g#
=28
4a
4e
4f#
=29
4g
4d
4e
=30
4e#
4a
4cc
=31
4ee#
4aa
4ccc
=32
2.bb[
=33
4bb]
4r
4r
=34
2.r
=35
4r
4r
4G
=36
4c
4e
4a
=37
4g
4d
4f#
=38
4g
4b
4ee
=39
4dd
4a
4b
=40
4cc
4e
4e#
=41
4g
4c
4d
=42
4e
4r
4r
=43
4r
4r
4G
=44
4c
4e
4a
=45
4g
4d
4f#
=46
4g
4b
4ee
=47
4dd
4a
4b
=48
4cc
4e
4f#
=49
4g[
4g]
4r
=50
2.r
=51
4r
4r
4G
=52
4c
4e
4a
=53
4g
4d
4f#
=54
4g
4b
4ee
=55
4dd
4a
4b
=56
4cc
4e
4e#
=57
4g
4c
4d
=58
4e
4r
4r
=59
4r
4r
4G
=60
4c
4e
4a
=61
4g
4d
4f#
=62
4g
4b
4ee
=63
4dd
4a
4b
=64
4cc
4e
4f#
=65
4g[
4g]
4g
=66
4g#
4cc
4gg
=67
4ee#
4cc
4dd#
=68
4dd
4g#
4cc
=69
4b
4r
4r
=70
4r
4r
4G
=71
4G#
4c
4g
=72
4e#[
4e#]
4d#
=73
4d[
4d]
4c
=74
2.e#[
=75
4e#]
4r
4f##
=76
2.g#[
=77
4g#]
4r
4b
=78
2cc
4b
=79
2cc
4dd
=80
4dd#
4c
4ee#
=81
4gg
4B
4r
=82
2.r
=83
4r
4r
4G
=84
4c
4e
4a
=85
4g
4d
4e
=86
4e#
4a
4dd
=87
4cc
4e#
4cc
=88
4b
4dd
4aa
=89
4gg
4cc
4dd
=90
4ee
4gg
4ddd
=91
4ccc
4dd
4ee
=92
4ee#
4b
4dd#
=93
4ee
4a
4cc#
=94
4dd
4ee#
4aa
=95
4ddd
4eee#
4aaa
=96
2.ggg[
=97
4ggg]
4r
4g
=98
4g#
4cc
4gg
=99
4ee#
4cc
4dd#
=100
4dd
4g#
4cc
=101
4b
4r
4r
=102
4r
4r
4G
=103
4G#
4c
4g
=104
4e#[
4e#]
4d#
=105
4d
4G
4c
=106
2.e#[
=107
4e#]
4r
4f##
=108
2.g#[
=109
4g#]
4r
4b
=110
2cc
4b
=111
2cc
4dd
=112
4dd#
4c
4ee#
=113
4gg
4B
4r
=114
2.r
=115
4r
4r
4G
=116
4c
4e
4a
=117
4g
4d
4e
=118
4e#
4a
4dd
=119
4cc
4e#
4cc
=120
4b
4dd
4aa
=121
4gg
4cc
4dd
=122
4ee
4gg
4ddd
=123
4ccc
4dd
4ee
=124
4ee#
4b
4dd#
=125
4ee
4a
4cc#
=126
4dd
4ee#
4aa
=127
4ddd
4eee#
4aaa
=128
2.ggg[
=129
4ggg]
4r
4c
=130
4c
4c
4c
=131
4c[
4c]
4c[
=132
4c]
4A
4c
=133
2a
4e#[
=134
4e#]
4c
4c
=135
4c[
4c]
4c[
=136
4c]
4A
4E#
=137
4C
4r
4c
=138
4c
4c
4c
=139
4c[
4c]
4c[
=140
4c]
4A
4c
=141
2a
4a
=142
2a
4a#
=143
2a#
4b
=144
2.b[
=145
4b]
4r
4r
=146
4e
4g#
4cc#
=147
4b
4f#
4g#
=148
4a
4cc#
4ee
=149
2aa
4gg#
=150
2.gg#
=151
2ff#
4ee
=152
2dd#
4cc#[
=153
4cc#]
4b
4a
=154
4g#
4b
4ff#
=155
4ee
4f#
4g#
=156
4a
4cc#
4ff#
=157
4ee
4a
4a#
=158
4b
4ee
4gg#
=159
4bb
4eee
4ggg#
=160
2.bbb[
=161
4bbb]
4r
4r
=162
2.ee
=163
2.ff#
=164
4dd
4cc#
4r
=165
2ee
4r
=166
2cc#
8r
16a
16b
=167
4a
4g#
4r
=168
2.b
=169
2.b
=170
2.ee
=171
2.ff#
=172
4ff#
4ee
4r
=173
2.gg#
=174
2aa
8gg#[
8gg#]
=175
2ff#
8ee#[
8ee#]
=176
2.ee#
=177
2.ff#
=178
2.ee
=179
2.ff#
=180
4dd
4cc#
4r
=181
2ee
4r
=182
2cc#
8r
16a
16b
=183
4a
4g#
4r
=184
2.b
=185
2.b
=186
2.ee
=187
2.ff#
=188
4ff#
4ee
4r
=189
2.gg#
=190
2aa
8gg#[
8gg#]
=191
2ff#
8ee#[
8ee#]
=192
2.ee#
=193
2ff#
4ff#
=194
2.f#]
=195
2e#
4f#
=196
2.a
=197
2gg
4f#
=198
2.e#
=199
2d##
4e#
=200
2.g#
=201
2.f#
=202
2.AA
=203
2GG#
4AA
=204
2.BB
=205
2.C
=206
2.C#
=207
2.CC#
=208
4FF#
4r
4r
=209
4EE
4r
4r
=210
2.ee
=211
2.ff#
=212
4dd
4cc#
4r
=213
2ee
4r
=214
2cc#
8r
16a
16b
=215
4a
4g#
4r
=216
2.b
=217
2.b
=218
2.ee
=219
2.ff#
=220
4ff#
4ee
4r
=221
2.gg#
=222
2.aa
=223
4.bb
8aa
8ff#
8b
=224
8ee
8dd
8b
8g#
8e
8d
=225
4a
4r
4r
=226
4e
4g#
4cc#
=227
4b
4f#
4g#
=228
4a
4cc#
4ee
=229
2aa
4gg#
=230
2.gg#
=231
2ff#
4ee
=232
2dd#
4cc#[
=233
4cc#]
4b
4a
=234
4g#
4b
4ff#
=235
4ee
4f#
4g#
=236
4a
4cc#
4ff#
=237
4ee
4a
4a#
=238
4b
4ee
4gg#
=239
4bb
4eee
4ggg#
=240
2.bbb[
=241
4bbb]
4r
4g
=242
4g
4g
4g
=243
4g[
4g]
4g[
=244
4g]
4e
4g
=245
2ee
4cc[
=246
4cc]
4g
4g
=247
4g[
4g]
4g[
=248
4g]
4e
4c
=249
4G
4r
4g
=250
4g
4g
4g
=251
4g[
4g]
4g[
=252
4g]
4e
4g
=253
2ee
4ee
=254
2ee
4ee#
=255
2ee#
4ff#
=256
2.ff#[
=257
4ff#]
4r
4r
=258
4e
4g#
4cc#
=259
4b
4f#
4g#
=260
4a
4cc#
4ee
=261
2aa
4gg#
=262
2.gg#
=263
2ff#
4ee
=264
2dd#
4cc#[
=265
4cc#]
4b
4a
=266
4g#
4b
4ff#
=267
4ee
4f#
4g#
=268
4a
4e
4f#
=269
4g
4d
4e
=270
4e#
4a
4cc
=271
4ee#
4aa
4ccc
=272
2.bb[
=273
4bb]
4r
4r
==
*-
